X: 1
T: Bj\"ornes schottis
C: av Rickard N\"aslin
O: J\"amtland
S: Bruce Sagan's "scanfolk" session archive
F: https://app.box.com/s/u6iiren0igvsukrhdducy7orq72jayq8/file/763411076086
R: shottish
Z: 2021 John Chambers <jc:trillian.mit.edu>
M: 4/4
L: 1/8
K: G
(3DEF |\
"G"G2GD G2GB | "D7"(AB)AG (FG)AB | c2cA "G"B2BG | "D7"(AB)AF "(G)"(DG)FG |\
"C"E2CC (CG)FG | "G"D2B,2 (B,G)FE | "D7"(DE)FG (Ac)AF | "G"G2G2 G2 :|
|: FG |\
"D7"A2AF | (DF)Ac | "G"B2(3(cBA) G2Bd | "C"e2ec e2eg | "G"(de)dB (AB)dg |\
"G"b2bg "A"a2af | "C"(ge)ce "G"(de)dc | "G"(Bd)BG "D7"(Ac)AF | "G"G2G2 G2 :|
